src/assets/images/house-shape.svg

<svg height="364" viewBox="0 0 372 364" width="372" xmlns="http://www.w3.org/2000/svg"><path d="m657.366831 318.244873c1.961456 32.382172-.442909 58.98268-9.908516 84.526455-10.465317 28.543925-29.409186 50.249454-55.907824 66.100441-21.867071 13.033035-45.493125 21.341139-70.802234 25.786703-25.752019 4.664199-51.339529 4.737077-77.002967-1.639757-21.284961-5.453712-40.456611-15.000743-58.12237-27.632948-27.093621-19.142192-50.737446-42.415025-69.992343-68.894102-12.528009-17.30855-22.487144-35.698125-27.118711-56.322628-4.55564-19.762113-2.720729-39.050518 3.935566-57.986679 6.580369-18.729673 16.767286-35.600954 28.801767-51.403357 18.602196-24.061921 39.988394-45.694571 64.905212-63.829073 17.77965-13.033034 36.938646-23.478896 58.742444-29.272705 20.550997-5.368687 40.950139-4.700638 61.425209.971708 22.17078 6.097468 41.962504 16.786256 60.450809 29.916462 21.259652 15.207231 39.950429 32.928757 55.338368 53.881212 15.090686 20.643089 25.560998 44.063736 30.750568 68.784784 2.075347 10.895277 3.467349 21.559773 4.505022 27.013484z" fill="#fc6e69" fill-rule="evenodd" transform="matrix(1 0 0 -1 -286 498)"/></svg>

<svg xmlns="http://www.w3.org/2000/svg" width="372" height="364" viewBox="0 0 372 364">
  <path fill="#FC6E69" fill-rule="evenodd" d="M657.366831,318.244873 C659.328287,350.627045 656.923922,377.227553 647.458315,402.771328 C636.992998,431.315253 618.049129,453.020782 591.550491,468.871769 C569.68342,481.904804 546.057366,490.212908 520.748257,494.658472 C494.996238,499.322671 469.408728,499.395549 443.74529,493.018715 C422.460329,487.565003 403.288679,478.017972 385.62292,465.385767 C358.529299,446.243575 334.885474,422.970742 315.630577,396.491665 C303.102568,379.183115 293.143433,360.79354 288.511866,340.169037 C283.956226,320.406924 285.791137,301.118519 292.447432,282.182358 C299.027801,263.452685 309.214718,246.581404 321.249199,230.779001 C339.851395,206.71708 361.237593,185.08443 386.154411,166.949928 C403.934061,153.916894 423.093057,143.471032 444.896855,137.677223 C465.447852,132.308536 485.846994,132.976585 506.322064,138.648931 C528.492844,144.746399 548.284568,155.435187 566.772873,168.565393 C588.032525,183.772624 606.723302,201.49415 622.111241,222.446605 C637.201927,243.089694 647.672239,266.510341 652.861809,291.231389 C654.937156,302.126666 656.329158,312.791162 657.366831,318.244873 Z" transform="matrix(1 0 0 -1 -286 498)"/>
</svg>
